configs/network-logos/shibuya-logo-dark.svg

<svg width="80" height="24" viewBox="0 0 80 24" fill="none" xmlns="http://www.w3.org/2000/svg">
<path d="M6.0231 18.1346C5.41506 18.1346 4.79255 18.084 4.15556 17.9826C3.53305 17.8958 2.93225 17.7655 2.35317 17.5917C1.78857 17.418 1.28187 17.2009 0.833087 16.9403C0.514592 16.7666 0.290198 16.5422 0.159905 16.2671C0.0296121 15.9776 -0.0210575 15.688 0.00789656 15.3985C0.0513276 15.1089 0.159905 14.8556 0.333629 14.6384C0.521831 14.4068 0.753463 14.262 1.02853 14.2041C1.31807 14.1317 1.63656 14.1824 1.98401 14.3561C2.57757 14.6891 3.22179 14.9352 3.91669 15.0945C4.62606 15.2537 5.3282 15.3333 6.0231 15.3333C7.07992 15.3333 7.83272 15.1741 8.28151 14.8556C8.7303 14.5226 8.95469 14.11 8.95469 13.6178C8.95469 13.198 8.79545 12.865 8.47695 12.6189C8.15846 12.3728 7.60109 12.1629 6.80486 11.9891L4.351 11.468C2.96121 11.1784 1.9261 10.6862 1.24568 9.99131C0.579739 9.28194 0.246767 8.35541 0.246767 7.21173C0.246767 6.48788 0.398776 5.82917 0.702793 5.23561C1.00681 4.64206 1.43388 4.12812 1.98401 3.69381C2.53414 3.2595 3.1856 2.92653 3.93841 2.6949C4.70569 2.46326 5.54536 2.34745 6.45741 2.34745C7.26812 2.34745 8.06436 2.44879 8.84611 2.65147C9.62787 2.83967 10.3155 3.12197 10.9091 3.49837C11.1986 3.6721 11.3941 3.89649 11.4954 4.17155C11.6112 4.43214 11.6474 4.69996 11.604 4.97503C11.575 5.23561 11.4665 5.46725 11.2783 5.66992C11.1045 5.8726 10.8801 6.0029 10.6051 6.0608C10.33 6.11871 9.99704 6.05357 9.60616 5.86536C9.12842 5.61925 8.62172 5.43829 8.08607 5.32247C7.55042 5.20666 7.0003 5.14875 6.43569 5.14875C5.82766 5.14875 5.30648 5.22838 4.87217 5.38762C4.45234 5.54687 4.12661 5.77126 3.89498 6.0608C3.67782 6.35034 3.56924 6.68332 3.56924 7.05972C3.56924 7.47955 3.72125 7.81976 4.02527 8.08035C4.32929 8.34093 4.8577 8.55085 5.6105 8.7101L8.06436 9.23127C9.4831 9.53529 10.5399 10.0275 11.2348 10.7079C11.9297 11.3739 12.2772 12.257 12.2772 13.3572C12.2772 14.0811 12.1324 14.7398 11.8429 15.3333C11.5533 15.9124 11.1335 16.4119 10.5834 16.8317C10.0332 17.2515 9.37453 17.5773 8.60724 17.8089C7.83996 18.0261 6.97858 18.1346 6.0231 18.1346Z" fill="white"/>
<path d="M15.8304 18.0912C15.2947 18.0912 14.8821 17.9464 14.5926 17.6569C14.3175 17.3674 14.18 16.9548 14.18 16.4191V4.06298C14.18 3.51285 14.3175 3.10025 14.5926 2.82519C14.8821 2.53565 15.2947 2.39088 15.8304 2.39088C16.3515 2.39088 16.7497 2.53565 17.0247 2.82519C17.3143 3.10025 17.459 3.51285 17.459 4.06298V9.23127H17.155C17.488 8.5219 17.9802 7.97901 18.6317 7.60261C19.2976 7.21173 20.0504 7.01629 20.8901 7.01629C21.7442 7.01629 22.4464 7.18277 22.9965 7.51574C23.5466 7.83424 23.9592 8.32646 24.2343 8.9924C24.5093 9.64387 24.6469 10.4763 24.6469 11.4897V16.4191C24.6469 16.9548 24.5021 17.3674 24.2126 17.6569C23.9375 17.9464 23.5321 18.0912 22.9965 18.0912C22.4753 18.0912 22.07 17.9464 21.7804 17.6569C21.5054 17.3674 21.3678 16.9548 21.3678 16.4191V11.6417C21.3678 10.9034 21.2303 10.375 20.9552 10.0565C20.6946 9.72349 20.2893 9.557 19.7392 9.557C19.0443 9.557 18.4869 9.77416 18.0671 10.2085C17.6617 10.6428 17.459 11.2219 17.459 11.9457V16.4191C17.459 17.5338 16.9161 18.0912 15.8304 18.0912Z" fill="white"/>
<path d="M28.7452 18.0695C28.2095 18.0695 27.7969 17.9175 27.5074 17.6135C27.2323 17.295 27.0948 16.8534 27.0948 16.2888V8.86211C27.0948 8.28303 27.2323 7.84148 27.5074 7.53746C27.7969 7.21897 28.2095 7.05972 28.7452 7.05972C29.2663 7.05972 29.6645 7.21897 29.9395 7.53746C30.2291 7.84148 30.3738 8.28303 30.3738 8.86211V16.2888C30.3738 16.8534 30.2363 17.295 29.9612 17.6135C29.6862 17.9175 29.2808 18.0695 28.7452 18.0695ZM28.7452 5.27904C28.1371 5.27904 27.6666 5.14151 27.3337 4.86645C27.0152 4.57691 26.8559 4.17155 26.8559 3.65038C26.8559 3.11473 27.0152 2.70937 27.3337 2.43431C27.6666 2.14477 28.1371 2 28.7452 2C29.3532 2 29.8165 2.14477 30.135 2.43431C30.4535 2.70937 30.6127 3.11473 30.6127 3.65038C30.6127 4.17155 30.4535 4.57691 30.135 4.86645C29.8165 5.14151 29.3532 5.27904 28.7452 5.27904Z" fill="white"/>
<path d="M39.4852 18.1346C38.6311 18.1346 37.871 17.9247 37.2051 17.5049C36.5536 17.0706 36.1193 16.4987 35.9021 15.7894L36.141 15.0727V16.4191C36.141 16.9548 36.0035 17.3674 35.7284 17.6569C35.4533 17.9464 35.0552 18.0912 34.5341 18.0912C34.0129 18.0912 33.6075 17.9464 33.318 17.6569C33.0429 17.3674 32.9054 16.9548 32.9054 16.4191V4.06298C32.9054 3.51285 33.0429 3.10025 33.318 2.82519C33.6075 2.53565 34.0201 2.39088 34.5558 2.39088C35.0769 2.39088 35.4751 2.53565 35.7501 2.82519C36.0397 3.10025 36.1844 3.51285 36.1844 4.06298V9.20955H35.9238C36.1555 8.55809 36.597 8.02968 37.2485 7.62432C37.9 7.21897 38.6455 7.01629 39.4852 7.01629C40.4262 7.01629 41.2441 7.24068 41.939 7.68947C42.6339 8.13826 43.1768 8.77524 43.5677 9.60043C43.9586 10.4256 44.154 11.4101 44.154 12.5537C44.154 13.6974 43.9586 14.6891 43.5677 15.5288C43.1768 16.3684 42.6267 17.0127 41.9173 17.4615C41.2224 17.9102 40.4117 18.1346 39.4852 18.1346ZM38.508 15.6808C38.9713 15.6808 39.3766 15.565 39.7241 15.3333C40.086 15.1017 40.3611 14.7615 40.5493 14.3127C40.7519 13.8494 40.8533 13.2631 40.8533 12.5537C40.8533 11.4969 40.6361 10.7224 40.2018 10.2302C39.7675 9.72349 39.2029 9.47014 38.508 9.47014C38.0447 9.47014 37.6321 9.57872 37.2702 9.79587C36.9228 10.013 36.6477 10.3532 36.445 10.8165C36.2423 11.2653 36.141 11.8444 36.141 12.5537C36.141 13.6106 36.3582 14.3996 36.7925 14.9207C37.2268 15.4274 37.7986 15.6808 38.508 15.6808Z" fill="white"/>
<path d="M50.09 18.1346C49.1924 18.1346 48.4469 17.9681 47.8533 17.6352C47.2597 17.3022 46.8182 16.8028 46.5287 16.1368C46.2536 15.4564 46.1161 14.6167 46.1161 13.6178V8.7101C46.1161 8.15997 46.2536 7.74738 46.5287 7.47231C46.8182 7.19725 47.2236 7.05972 47.7447 7.05972C48.2659 7.05972 48.6713 7.19725 48.9608 7.47231C49.2503 7.74738 49.3951 8.15997 49.3951 8.7101V13.7047C49.3951 14.3417 49.5254 14.8194 49.786 15.1379C50.0466 15.4419 50.4592 15.5939 51.0238 15.5939C51.6463 15.5939 52.153 15.3768 52.5439 14.9425C52.9492 14.4937 53.1519 13.9073 53.1519 13.1835V8.7101C53.1519 8.15997 53.2894 7.74738 53.5645 7.47231C53.854 7.19725 54.2594 7.05972 54.7806 7.05972C55.3162 7.05972 55.7216 7.19725 55.9966 7.47231C56.2862 7.74738 56.4309 8.15997 56.4309 8.7101V16.4191C56.4309 17.5338 55.9025 18.0912 54.8457 18.0912C54.3245 18.0912 53.9264 17.9464 53.6514 17.6569C53.3763 17.3674 53.2388 16.9548 53.2388 16.4191V14.9642L53.5645 15.8111C53.246 16.5494 52.79 17.1212 52.1964 17.5266C51.6028 17.932 50.9007 18.1346 50.09 18.1346Z" fill="white"/>
<path d="M61.8781 22C61.5017 22 61.1905 21.8987 60.9444 21.696C60.6983 21.4933 60.5535 21.2255 60.5101 20.8925C60.4666 20.574 60.5245 20.2338 60.6838 19.8719L62.1387 16.658V18.0043L58.2951 9.18784C58.1503 8.81144 58.0996 8.46399 58.1431 8.14549C58.201 7.81252 58.3602 7.55194 58.6208 7.36374C58.8959 7.16106 59.2723 7.05972 59.75 7.05972C60.1409 7.05972 60.4522 7.15382 60.6838 7.34202C60.9299 7.51574 61.1543 7.85595 61.357 8.36265L63.9194 14.8773H63.2245L65.8738 8.34093C66.0765 7.84872 66.3009 7.51574 66.547 7.34202C66.8076 7.15382 67.155 7.05972 67.5893 7.05972C67.9657 7.05972 68.2625 7.16106 68.4797 7.36374C68.7113 7.55194 68.8488 7.80528 68.8923 8.12378C68.9502 8.44227 68.8923 8.78972 68.7185 9.16612L63.6154 20.7405C63.3982 21.2327 63.1521 21.5657 62.8771 21.7394C62.6165 21.9131 62.2835 22 61.8781 22Z" fill="white"/>
<path d="M73.9398 18.1346C73.158 18.1346 72.4559 17.9826 71.8334 17.6786C71.2108 17.3746 70.7259 16.962 70.3784 16.4408C70.031 15.9197 69.8572 15.3333 69.8572 14.6819C69.8572 13.9001 70.0599 13.2848 70.4653 12.836C70.8706 12.3728 71.5293 12.0471 72.4414 11.8588C73.3534 11.6562 74.5623 11.5548 76.0679 11.5548H77.2188V13.2486H76.0896C75.3513 13.2486 74.7505 13.2921 74.2872 13.3789C73.8384 13.4513 73.5127 13.5816 73.31 13.7698C73.1218 13.958 73.0277 14.2186 73.0277 14.5516C73.0277 14.9569 73.1652 15.2899 73.4403 15.5505C73.7298 15.8111 74.1424 15.9414 74.6781 15.9414C75.0979 15.9414 75.4671 15.8473 75.7856 15.6591C76.1185 15.4564 76.3791 15.1886 76.5673 14.8556C76.7555 14.5081 76.8496 14.1173 76.8496 13.683V11.1857C76.8496 10.5487 76.7049 10.0999 76.4153 9.83931C76.1258 9.56424 75.6336 9.42671 74.9387 9.42671C74.5478 9.42671 74.1207 9.47738 73.6574 9.57872C73.2087 9.66558 72.7092 9.81759 72.1591 10.0347C71.8406 10.1795 71.5583 10.2157 71.3122 10.1433C71.0661 10.0565 70.8779 9.91169 70.7476 9.70901C70.6173 9.49186 70.5521 9.26022 70.5521 9.01412C70.5521 8.75353 70.6245 8.50742 70.7693 8.27579C70.9141 8.02968 71.1529 7.84872 71.4859 7.7329C72.1663 7.45784 72.8033 7.26963 73.3969 7.1683C74.0049 7.06696 74.5623 7.01629 75.069 7.01629C76.1837 7.01629 77.0957 7.18277 77.8051 7.51574C78.529 7.83424 79.0719 8.3337 79.4338 9.01412C79.7957 9.68006 79.9767 10.5414 79.9767 11.5983V16.4191C79.9767 16.9548 79.8464 17.3674 79.5858 17.6569C79.3252 17.9464 78.9488 18.0912 78.4566 18.0912C77.9644 18.0912 77.5807 17.9464 77.3057 17.6569C77.0451 17.3674 76.9148 16.9548 76.9148 16.4191V15.6156L77.0668 15.7459C76.9799 16.2381 76.7917 16.6652 76.5022 17.0271C76.2271 17.3746 75.8724 17.6497 75.4381 17.8523C75.0038 18.0405 74.5044 18.1346 73.9398 18.1346Z" fill="white"/>
</svg>

<svg xmlns="http://www.w3.org/2000/svg" fill="none" viewBox="0 0 80 24">
  <path fill="#fff" d="M6.023 18.135c-.608 0-1.23-.051-1.867-.152a12.049 12.049 0 0 1-1.803-.391 7.28 7.28 0 0 1-1.52-.652c-.318-.173-.543-.398-.673-.673a1.68 1.68 0 0 1-.152-.868c.043-.29.152-.543.326-.76.188-.232.42-.377.695-.435.29-.072.608-.022.955.152.594.333 1.238.58 1.933.739.71.159 1.411.238 2.106.238 1.057 0 1.81-.159 2.259-.477.448-.333.673-.746.673-1.238 0-.42-.16-.753-.478-1-.319-.245-.876-.455-1.672-.629l-2.454-.521c-1.39-.29-2.425-.782-3.105-1.477-.666-.71-1-1.636-1-2.78 0-.723.153-1.382.457-1.975a4.656 4.656 0 0 1 1.281-1.542 5.934 5.934 0 0 1 1.954-1 8.685 8.685 0 0 1 2.52-.347c.81 0 1.606.102 2.388.304.782.189 1.47.471 2.063.847.29.174.485.398.586.674.116.26.152.528.109.803-.029.26-.137.492-.326.695a1.18 1.18 0 0 1-.673.39c-.275.059-.608-.006-.999-.195a6.135 6.135 0 0 0-1.52-.543 7.788 7.788 0 0 0-1.65-.173c-.608 0-1.13.08-1.564.239-.42.159-.745.383-.977.673a1.62 1.62 0 0 0-.326.999c0 .42.152.76.456 1.02.304.26.833.47 1.585.63l2.454.521c1.42.304 2.476.796 3.17 1.477.696.666 1.043 1.549 1.043 2.65a4.45 4.45 0 0 1-.434 1.975c-.29.58-.71 1.079-1.26 1.499-.55.42-1.208.745-1.976.977-.767.217-1.628.326-2.584.326Zm9.807-.044c-.535 0-.948-.145-1.237-.434-.275-.29-.413-.702-.413-1.238V4.063c0-.55.138-.963.413-1.238.29-.29.702-.434 1.237-.434.522 0 .92.145 1.195.434.29.275.434.688.434 1.238v5.168h-.304a3.591 3.591 0 0 1 1.477-1.628c.666-.391 1.418-.587 2.258-.587.854 0 1.556.167 2.107.5.55.318.962.81 1.237 1.476.275.652.413 1.484.413 2.498v4.93c0 .535-.145.947-.434 1.237-.276.29-.68.434-1.216.434-.522 0-.927-.145-1.217-.434-.275-.29-.412-.702-.412-1.238v-4.777c0-.739-.138-1.267-.413-1.585-.26-.334-.666-.5-1.216-.5-.695 0-1.252.217-1.672.652-.405.434-.608 1.013-.608 1.737v4.473c0 1.115-.543 1.672-1.629 1.672Zm12.915-.021c-.536 0-.948-.152-1.238-.457-.275-.318-.412-.76-.412-1.324V8.862c0-.579.137-1.02.412-1.325.29-.318.702-.477 1.238-.477.521 0 .92.159 1.194.477.29.304.435.746.435 1.325v7.427c0 .564-.138 1.006-.413 1.324-.275.305-.68.457-1.216.457Zm0-12.791c-.608 0-1.078-.137-1.411-.413-.319-.29-.478-.694-.478-1.216 0-.535.16-.94.478-1.216.333-.29.803-.434 1.411-.434s1.072.145 1.39.434c.318.275.478.68.478 1.216 0 .522-.16.927-.478 1.216-.319.276-.782.413-1.39.413Zm10.74 12.856c-.854 0-1.614-.21-2.28-.63-.651-.434-1.086-1.006-1.303-1.716l.239-.716v1.346c0 .536-.137.948-.413 1.238-.275.29-.673.434-1.194.434-.521 0-.926-.145-1.216-.434-.275-.29-.413-.702-.413-1.238V4.063c0-.55.138-.963.413-1.238.29-.29.702-.434 1.238-.434.52 0 .92.145 1.194.434.29.275.434.688.434 1.238V9.21h-.26c.232-.652.673-1.18 1.325-1.586.651-.405 1.396-.608 2.236-.608.941 0 1.76.225 2.454.673.695.45 1.238 1.086 1.629 1.911.39.826.586 1.81.586 2.954 0 1.143-.195 2.135-.586 2.975-.391.84-.941 1.484-1.65 1.933-.696.448-1.506.673-2.433.673Zm-.977-2.454a2.14 2.14 0 0 0 1.216-.348c.362-.231.637-.572.825-1.02.203-.464.304-1.05.304-1.76 0-1.056-.217-1.83-.651-2.323-.434-.507-1-.76-1.694-.76-.463 0-.876.109-1.238.326-.347.217-.622.557-.825 1.02-.203.45-.304 1.028-.304 1.738 0 1.057.217 1.846.651 2.367.435.506 1.007.76 1.716.76Zm11.582 2.454c-.898 0-1.643-.167-2.237-.5-.593-.333-1.035-.832-1.324-1.498-.275-.68-.413-1.52-.413-2.52V8.71c0-.55.138-.963.413-1.238.29-.275.695-.412 1.216-.412.52 0 .926.137 1.216.412.29.275.434.688.434 1.238v4.995c0 .637.13 1.114.391 1.433.26.304.673.456 1.238.456.622 0 1.129-.217 1.52-.651.405-.45.608-1.036.608-1.76V8.71c0-.55.137-.963.413-1.238.289-.275.694-.412 1.216-.412.535 0 .94.137 1.216.412.29.275.434.688.434 1.238v7.71c0 1.114-.528 1.671-1.585 1.671-.521 0-.92-.145-1.195-.434-.275-.29-.412-.702-.412-1.238v-1.455l.326.847c-.319.738-.775 1.31-1.369 1.716-.593.405-1.295.608-2.106.608ZM61.878 22c-.376 0-.688-.101-.934-.304a1.202 1.202 0 0 1-.434-.804c-.043-.318.015-.658.174-1.02l1.455-3.214v1.346l-3.844-8.816c-.145-.377-.195-.724-.152-1.043.058-.332.217-.593.478-.781.275-.203.651-.304 1.129-.304.39 0 .702.094.934.282.246.174.47.514.673 1.02l2.562 6.515h-.694l2.649-6.536c.203-.492.427-.825.673-.999.26-.188.608-.282 1.042-.282.377 0 .674.101.89.304.232.188.37.441.413.76.058.318 0 .666-.173 1.042l-5.104 11.575c-.217.492-.463.825-.738.998-.26.174-.594.261-.999.261Zm12.062-3.865c-.782 0-1.484-.152-2.107-.456-.622-.304-1.107-.717-1.455-1.238a3.1 3.1 0 0 1-.52-1.76c0-.78.202-1.396.607-1.845.406-.463 1.064-.789 1.976-.977.912-.203 2.121-.304 3.627-.304h1.15v1.694H76.09c-.739 0-1.34.043-1.803.13-.449.072-.774.203-.977.39-.188.189-.282.45-.282.783 0 .405.137.738.412.998.29.261.702.391 1.238.391.42 0 .79-.094 1.108-.282a2.19 2.19 0 0 0 .781-.803c.189-.348.283-.739.283-1.173v-2.497c0-.637-.145-1.086-.435-1.347-.29-.275-.781-.412-1.476-.412-.391 0-.818.05-1.282.152a8.58 8.58 0 0 0-1.498.456c-.318.145-.6.18-.847.108a1.071 1.071 0 0 1-.564-.434 1.328 1.328 0 0 1-.196-.695c0-.26.072-.507.217-.738.145-.246.384-.427.717-.543a9.323 9.323 0 0 1 1.91-.565 10.234 10.234 0 0 1 1.673-.152c1.115 0 2.027.167 2.736.5a3.288 3.288 0 0 1 1.629 1.498c.362.666.543 1.527.543 2.584v4.821c0 .536-.13.948-.391 1.238-.26.29-.637.434-1.13.434-.492 0-.875-.145-1.15-.434-.26-.29-.391-.702-.391-1.238v-.803l.152.13a2.79 2.79 0 0 1-1.629 2.106c-.434.189-.934.283-1.498.283Z"/>
</svg>
